public/assets/images/utils/Quote Icon.svg

<svg width="36" height="36" viewBox="0 0 36 36" fill="none" xmlns="http://www.w3.org/2000/svg">
<path d="M15.1738 24.4598C15.1738 25.8953 14.6714 27.0976 13.6665 28.0665C12.6617 29.0355 11.4056 29.52 9.89832 29.52C8.46281 29.52 7.24262 28.9637 6.23776 27.8512C5.2329 26.7387 4.73047 25.339 4.73047 23.6523C4.73047 22.4321 4.99963 21.0863 5.53795 19.6149C6.11215 18.1435 6.84785 16.6542 7.74505 15.1469C8.67813 13.6396 9.71888 12.1503 10.8673 10.6789C12.0516 9.17157 13.2359 7.77194 14.4202 6.47998L15.8736 7.66428C14.2587 9.56634 12.9129 11.4863 11.8363 13.4243C10.7596 15.3622 10.1136 17.2643 9.89832 19.1304C11.3338 19.2381 12.572 19.7764 13.6127 20.7454C14.6535 21.7144 15.1738 22.9525 15.1738 24.4598ZM30.6236 24.4598C30.6236 25.8953 30.1211 27.0976 29.1163 28.0665C28.1114 29.0355 26.8553 29.52 25.348 29.52C23.9125 29.52 22.6923 28.9637 21.6875 27.8512C20.6826 26.7387 20.1802 25.339 20.1802 23.6523C20.1802 22.4321 20.4493 21.0863 20.9877 19.6149C21.5619 18.1435 22.2976 16.6542 23.1948 15.1469C24.1279 13.6396 25.1686 12.1503 26.317 10.6789C27.5013 9.17157 28.6856 7.77194 29.8699 6.47998L31.2695 7.66428C29.6546 9.56634 28.3088 11.4863 27.2322 13.4243C26.1914 15.3622 25.5634 17.2643 25.348 19.1304C26.7836 19.2381 28.0217 19.7764 29.0624 20.7454C30.1032 21.7144 30.6236 22.9525 30.6236 24.4598Z" fill="#73BDFF"/>
</svg>

<svg xmlns="http://www.w3.org/2000/svg" fill="none" viewBox="0 0 36 36"><path fill="#73bdff" d="M15.174 24.46q0 2.153-1.508 3.607-1.506 1.452-3.768 1.453-2.152 0-3.66-1.669-1.508-1.668-1.508-4.199 0-1.83.808-4.037a30 30 0 0 1 2.207-4.468 50 50 0 0 1 3.122-4.468A73 73 0 0 1 14.42 6.48l1.454 1.184q-2.422 2.853-4.038 5.76-1.614 2.907-1.938 5.706 2.154.162 3.715 1.615t1.56 3.715m15.45 0q0 2.153-1.508 3.607-1.507 1.452-3.768 1.453-2.153 0-3.66-1.669-1.508-1.668-1.508-4.199 0-1.83.808-4.037a30 30 0 0 1 2.207-4.468 50 50 0 0 1 3.122-4.468A73 73 0 0 1 29.87 6.48l1.4 1.184q-2.422 2.853-4.038 5.76-1.56 2.907-1.884 5.706 2.154.162 3.714 1.615 1.562 1.454 1.562 3.715"/></svg>
